build/svg/cmd/sc_insertcolumnsafter.svg

<?xml version="1.0" encoding="UTF-8" standalone="no"?>
<svg
   xmlns:dc="http://purl.org/dc/elements/1.1/"
   xmlns:cc="http://creativecommons.org/ns#"
   xmlns:rdf="http://www.w3.org/1999/02/22-rdf-syntax-ns#"
   xmlns:svg="http://www.w3.org/2000/svg"
   xmlns="http://www.w3.org/2000/svg"
   xmlns:sodipodi="http://sodipodi.sourceforge.net/DTD/sodipodi-0.dtd"
   xmlns:inkscape="http://www.inkscape.org/namespaces/inkscape"
   viewBox="0 0 16 16"
   version="1.1"
   id="svg6"
   sodipodi:docname="sc_insertcolumnsafter.svg"
   inkscape:version="0.92.5 (2060ec1f9f, 2020-04-08)"
   inkscape:export-filename="/home/jupiter007/Libreoffice yaru theme fullcolor/build/cmd/sc_insertcolumnsafter.png"
   inkscape:export-xdpi="95"
   inkscape:export-ydpi="95">
  <metadata
     id="metadata12">
    <rdf:RDF>
      <cc:Work
         rdf:about="">
        <dc:format>image/svg+xml</dc:format>
        <dc:type
           rdf:resource="http://purl.org/dc/dcmitype/StillImage" />
      </cc:Work>
    </rdf:RDF>
  </metadata>
  <defs
     id="defs10" />
  <sodipodi:namedview
     pagecolor="#ffffff"
     bordercolor="#666666"
     borderopacity="1"
     objecttolerance="10"
     gridtolerance="10"
     guidetolerance="10"
     inkscape:pageopacity="0"
     inkscape:pageshadow="2"
     inkscape:window-width="1920"
     inkscape:window-height="1011"
     id="namedview8"
     showgrid="true"
     inkscape:zoom="32"
     inkscape:cx="-5.0207553"
     inkscape:cy="9.1025039"
     inkscape:window-x="0"
     inkscape:window-y="32"
     inkscape:window-maximized="1"
     inkscape:current-layer="svg6">
    <inkscape:grid
       type="xygrid"
       id="grid822" />
  </sodipodi:namedview>
  <rect
     style="opacity:1;fill:#ffffff;fill-opacity:1;stroke:none;stroke-width:2;stroke-linecap:round;stroke-linejoin:round;stroke-miterlimit:4;stroke-dasharray:none;stroke-opacity:1"
     id="rect820"
     width="10"
     height="10"
     x="-13"
     y="3"
     transform="scale(-1,1)" />
  <path
     d="M 10,14 H 6.9999997 6 5 C 3,14 2,14 2,12 V 4 C 2,2 3,2 5,2 h 5 z M 10,3 V 5 Z M 8.9999998,3 H 6.9999997 V 5 H 8.9999998 Z M 6,3 H 5 C 4,3 3,3 3,4 v 1 h 1 1 1 z m 4,3 V 9 Z M 8.9999998,6 H 6.9999997 V 9 H 8.9999998 Z M 6,6 H 5 4 3 v 3 h 1 1 1 z m 4,4 v 3 z M 8.9999998,10 H 6.9999997 v 3 H 8.9999998 Z M 6,10 H 5 4 3 v 2 c 0,1 1,1 2,1 h 1 z"
     id="path2-0"
     inkscape:connector-curvature="0"
     style="fill:#6d6d6d;fill-opacity:1"
     sodipodi:nodetypes="cccccccccccccccccccccccccccccccccccccccccccccccccccccccccc" />
  <path
     d="M 14,4 V 4.28125 5.71875 6 7 8.28125 9.71875 10 12 c 0,2 -1,2 -3,2 H 10 9 V 13 12 11 10 9.28125 8 7 6 5.28125 4 3 2 h 1 1 c 2,0 3,0 3,2 z M 13,4 C 13,3 12,3 11,3 h 1.71875 L 12.528866,3.1898835 11.71875,4 10,5.71875 V 6 7 8 8.28125 L 10.28125,8 l 1,-1 1,-1 L 13,5.28125 Z M 11.28125,3 H 10 V 4 4.28125 L 10.28125,4 Z M 13,6.71875 12.71875,7 l -1,1 L 10,9.71875 V 10 v 1 1 0.28125 L 10.28125,12 l 1,-1 1,-1 L 13,9.28125 V 7 Z m 0,4 L 12.71875,11 l -1,1 -1,1 H 11 c 1,0 2,0 2,-1 z"
     id="path4"
     inkscape:connector-curvature="0"
     style="fill:#46a926;fill-opacity:1"
     sodipodi:nodetypes="ccccccccccccccccccccccccccccccccccccccccccccccccccccccccccccccccccccc" />
  <circle
     style="opacity:1;vector-effect:none;fill:#46a926;fill-opacity:1;stroke:none;stroke-width:3.49999976;stroke-linecap:butt;stroke-linejoin:round;stroke-miterlimit:4;stroke-dasharray:none;stroke-dashoffset:0;stroke-opacity:1"
     id="path2644"
     cy="12.499999"
     cx="3.5"
     r="3.5" />
  <path
     inkscape:connector-curvature="0"
     id="path1063"
     overflow="visible"
     font-weight="400"
     style="color:#000000;font-weight:400;line-height:normal;font-family:sans-serif;text-indent:0;text-align:start;text-decoration:none;text-decoration-line:none;text-decoration-style:solid;text-decoration-color:#000000;text-transform:none;white-space:normal;overflow:visible;isolation:auto;mix-blend-mode:normal;fill:#ffffff;fill-opacity:1;marker:none"
     d="m 3,10 v 2 H 1 v 1 h 2 v 2 H 4 V 13 H 6 V 12 H 4 v -2 z" />
</svg>

<svg xmlns="http://www.w3.org/2000/svg" viewBox="0 0 16 16"><path fill="#fff" d="M13 3H3v10h10z"/><path d="M10 14H5c-2 0-3 0-3-2V4c0-2 1-2 3-2h5zm0-11v2zM9 3H7v2h2zM6 3H5C4 3 3 3 3 4v1h3zm4 3v3zM9 6H7v3h2zM6 6H3v3h3zm4 4v3zm-1 0H7v3h2zm-3 0H3v2c0 1 1 1 2 1h1z" fill="#6d6d6d"/><path d="M14 4V12c0 2-1 2-3 2H9V2h2c2 0 3 0 3 2zm-1 0c0-1-1-1-2-1h1.719l-.19.19-.81.81L10 5.719V8.28L10.281 8l1-1 1-1L13 5.281zm-1.719-1H10V4.281L10.281 4zM13 6.719L12.719 7l-1 1L10 9.719V12.28l.281-.281 1-1 1-1L13 9.281V7zm0 4l-.281.281-1 1-1 1H11c1 0 2 0 2-1z" fill="#46a926"/><circle cy="12.5" cx="3.5" r="3.5" fill="#46a926"/><path overflow="visible" font-weight="400" style="line-height:normal;text-indent:0;text-align:start;text-decoration-line:none;text-decoration-style:solid;text-decoration-color:#000;text-transform:none;white-space:normal;isolation:auto;mix-blend-mode:normal;marker:none" d="M3 10v2H1v1h2v2h1v-2h2v-1H4v-2z" color="#000" font-family="sans-serif" fill="#fff"/></svg>
